X:1
T:Fuga
T:From Fantasia et Fuga BWV 542
T:Johann Sebastian Bach
%%score { ( 1 3 4 6 ) | ( 2 5 ) } 7
L:1/8
Q:1/4=70
M:4/4
K:Bb
V:1 treble nm="Pipe Organ"
V:3 treble 
V:4 treble 
V:6 treble 
V:2 bass 
V:5 bass 
V:7 bass-8 nm="Pipe Organ"
V:1
 z2 z"^1.343 secs" d B/c/A/B/ Gg | ^f/g/=e/f/ dg/d/ _ec=F=f | d/e/c/d/ Be/B/ cADd | %3
 B/c/A/B/ G/A/B/c/ d=e f/g/f/g/ | a=e f4 e2- | e2 d4 ^c2 | d2 z d =c/d/B/c/ A/B/c/d/ | %7
 B/c/A/B/ G/A/B/c/ A/B/G/A/ ^F/A/G/B/ | A/c/B/d/ c/_e/d/=f/ =e/^f/g- g/g/f | g2 z b ag^fg | %10
 c/d/_e- e/e/d/c/ B/c/d- d/d/c/B/ | A/B/c- c/c/B/A/ Gd g2- | gf b2- ba- ag- | gg ^f2 g2 z d/=e/ | %14
 fgab a2- a/g/f/=e/ | d2 z =e f2- f/f/g/a/ | b/a/g/f/ =e>d d2 z/ d/c/d/ | %17
 B/c/A/B/ GB c2 z/ c/B/c/ | A/B/G/A/ FA B2 z/ B/A/B/ | G2- G/B/A/B/ c2- c/B/c/A/ | z4 z2 z d | %21
 B/c/A/B/ Gg ^f/g/=e/f/ dg/d/ | _ecFf d/e/c/d/ Be/B/ | cADd B/c/A/B/ G/A/=B/^c/ | %24
 d=e f/g/f/g/ ae f2- | f2 =e4 d2- | d2 ^c2 d2 z d | c2 f2 B2 z/ g/^f/g/ | Ae d/c/B/A/ GA B/c/B/c/ | %29
 d2 z/ d/e/d/ c/d/e- e/e/d/c/ | B/c/d- d/d/c/B/ A/B/c- c/c/B/A/ | Bc d/=e/d/e/ Tf4- | %32
 f4- f/g/e/f/ d/e/f/g/ | e4- e/f/d/e/ c/d/e/f/ | d4- d/e/c/d/ B/A/G/B/ | %35
 A/B/G/A/ B/d/c/d/4e/4 d/c/B/c/ A/c/B/A/ | Bc d/e/d/e/ c/d/B/c/ Ad | d2 c4 B2- | B2 A2 z FBB | %39
 A2 B=B cGcc | _B=Bc^c dAdd | ^c2 d4 c2 | dfG=e F/A/d ^c/e/a | %43
 f/g/=e/f/ d/f/e/d/ ^c/d/=B/c/ Ad/A/ | _BGCc A/B/G/A/ FB/F/ | G=EA,A F/G/E/F/ D/F/A/d/ | %46
 ^c/d/=B/c/ A/c/=e/g/ f/g/e/f/ d/f/a/=c'/ | _b/c'/a/b/ g/a/f/g/ =e/f/d/e/ c/e/g/b/ | %48
 a/b/g/a/ f/g/=e/f/ d/e/c/d/ B/d/f/a/ | g/a/f/g/ =e/f/d/e/ ^c/d/=B/c/ A/c/e/a/ | %50
 d/f/A/d/ F/A/D/=B/ A/^c/=e/g/ f/a/d/f/ | G/B/d/f/ =e/g/c/e/ F/A/c/e/ d/f/B/d/ | %52
 =E/G/B/d/ ^c/=e/A/c/ d/f/A/d/ F/A/D/A/ | B/=c/A/B/ GB c/=e/G/c/ =E/G/C/G/ | ABcd Gg- g/f/c/a/ | %55
 b/c/d- d/d/c/B/ a/B/c- c/c/B/A/ | g/A/B- B/B/A/G/ F2 z2 | z cf=e f/_e/d/f/ e/c/=B/d/ | %58
 c2 z2 z gc'=b | c'/_b/a/c'/ b/g/^f/a/ gdg^f | g/a/^f/a/ g/a/=f/g/ e/f/d/f/ e/f/d/e/ | %61
 B/d/B/d/ c/d/B/d/ A/B/G/B/ A/B/G/A/ | ^F/G/=E/F/ Dd B/c/A/B/ Gg | %63
 ^f/g/=e/f/ d/b/c/a/ B/c/A/B/ G/B/_e/G/ | ^F/A/d- d/c/B/A/ B/d/g- g/^c/!fermata!=e | d2 b4 a2- | %66
 a2 g4 ^f2 | gdg^f gdBc | dddd de=fg | egc'=b c'gef | gggg g2 z2 | z2 z g e/f/d/e/ cc' | %72
 =b/c'/a/b/ gc'/g/ _afB_b | g/_a/f/g/ ea/e/ fdGg | e/f/d/e/ c/e/d/c/ =B/c/A/B/ G/f/e/d/ | %75
 c/G/d/G/ e/G/f/G/ g/G/a/G/ =bg | Tg8- | g/e/f/g/ _a2- a/d/e/f/ g2- | %78
 g/b/_a/g/ f/e/d/e/ dfB!fermata!d | e2- e/f/g/=a/ b4 | z/ e/f/g/ _a/g/f/a/ g4 | %81
 z/ c/d/e/ f/e/d/f/ Bde z | z Bed efg z | G/B/A/c/ B/d/c/e/ z fba | b z z2 d/e/c/d/ B/d/c/e/ | %85
 d/f/=e/g/ f/_a/g/b/ c'4- | c'2 b_a b4- | b2 _ag a4- | a2 gf e/f/d/e/ c/e/d/f/ | %89
 e/f/d/e/ c/e/d/f/ e/f/d/e/ c/e/d/f/ | =e/g/^f/a/ g/b/a/c'/ b/c'/a/b/ g/b/a/c'/ | %91
 b/c'/a/b/ g/b/a/c'/ b/c'/a/b/ g/b/a/c'/ | b/c'/b/a/ g/b/a/g/ ^fd z d | %93
 B/c/A/B/ Gg ^f/g/=e/f/ dg/d/ | _ecFf d/e/c/d/ Be/B/ | cADd B/c/A/B/ G/B/A/G/ | %96
 ^F/G/=E/F/ D/F/A/c/ B/c/A/B/ G/B/d/=f/ | _e/f/d/e/ c/d/B/c/ A/B/G/A/ F/A/c/e/ | %98
 d/e/c/d/ B/c/A/B/ G/A/F/G/ E/G/B/d/ | c/d/B/c/ A/B/G/A/ ^F/G/=E/F/ D/F/A/d/ | %100
 G/B/d/g/ B/d/G/B/ D/^F/A/c/ B/d/G/B/ | C/E/G/B/ A/c/F/A/ B,/D/F/A/ G/B/E/G/ | %102
 A,/C/=E/G/ ^F/G/E/F/ GA B/c/B/c/ | d2 z B c/d/e- e/e/d/c/ | B/c/d- d/d/c/B/ A/B/c- c/c/B/A/ | %105
 GABc d4- | d/e/c/d/ B/c/d/e/ c4- | c/d/B/c/ A/B/c/d/ B4- | %108
 B/c/A/c/ G/B/A/G/ ^F/G/=E/F/ G/B/[Q:1/4=67]A/c/ | B[Q:1/4=65]G/A/ P^F>G[Q:1/4=70] G z z e | %110
 d2 z d g/=f/e/d/ cd/e/ | f/g/e/f/ dB e/d/c/B/ AB/c/ | d/e/c/e/ B^f gcBf | %113
 gcB^f[Q:1/4=67] g[Q:1/4=65]a[Q:1/4=55]d[Q:1/4=50]f |[Q:1/4=40] g3 |] %115
V:2
 z8 | z8 | z8 | z8 | z8 | z8 | z8 | z8 | z4 z2 z D | B,/C/A,/B,/ G,G ^F/G/=E/F/ DG/D/ | %10
 _ECF,F D/E/C/D/ B,E/B,/ | CA,D,D B,/C/A,/B,/ G,/A,/B,/C/ | D/E/C/D/ B,/C/D/E/ F/G/E/F/ D/F/E/D/ | %13
 C/D/B,/C/ A,/B,/C/D/ B,/C/A,/B,/ G,/A,/B,/C/ | D=E[K:treble] F/G/F/G/ A=E F2- | F2 =E4 D2- | %16
 D2 ^C2 D2[K:bass] z/ F/_E/F/ | D/E/C/D/ B,D G,2 z/ E/D/E/ | %18
 C/D/B,/C/ A,C F,2 z/[K:treble] D/C/D/ | B,/D/C/D/ E2- E/G/^F/G/ A/G/A/F/ | %20
 GD[K:bass] C/E/A,/C/ B,/D/G,/B,/ A,/C/^F,/A,/ | G,3 E DCB,G, | C/D/E- E/E/D/C/ B,/C/D- D/D/C/B,/ | %23
 A,/B,/C- C/C/B,/A,/ G,A, B,A,/G,/ | A,2- A,D, =E,A,D,F, | %25
 G,/A,/B,- B,/B,/A,/G,/ F,/G,/A,- A,/A,/G,/F,/ | =E,/F,/G,- G,/G,/F,/E,/ D,F, B,2- | B,2 A,4 G,2- | %28
 G,2 ^F,2 G,2 z2 | A,/B,/G,/A,/ B,4 A,2- | A,2 G,4 ^F,2 | G,A, B,/C/B,/C/ A,/B,/G,/A,/ B,/C/D/E/ | %32
 C/D/B,/C/ A,/B,/C/A,/ B,4- | B,/C/A,/B,/ G,/A,/B,/C/ A,4- | %34
 A,/B,/G,/A,/ F,/G,/A,/F,/ B,C[I:staff -1]D=E |[I:staff +1] z4 z2 z F, | %36
 D,/E,/C,/D,/ B,,B, A,/B,/G,/A,/ F,B,/F,/ | G,E,A,,A, F,/G,/E,/F,/ D,G,/D,/ | %38
 E,C,F,,F, D,/E,/C,/D,/ B,,/C,/D,/E,/ | F,/G,/E,/F,/ D,/E,/F,/G,/ C,/D,/B,,/C,/ A,,/B,,/C,/D,/ | %40
 G,,/A,,/F,,/G,,/ =E,,/F,,/G,,/A,,/ D,,/D,/=C,/D,/ =B,,/C,/D,/=E,/ | A,,A,B,D, =E,G,A,A,, | %42
 D, z z2 z4 | z2 F,/A,/D,/F,/ A,,/^C,/=E,/G,/ F,/A,/D,/F,/ | %44
 G,,/_B,,/D,/F,/ =E,/G,/C,/E,/ F,,/A,,/C,/E,/ D,/F,/B,,/D,/ | %45
 =E,,/G,,/B,,/D,/ ^C,/=E,/A,,/C,/ D,,E,,F,,D,, | A,,=B,,^C,A,, D,=E,F,D, | %47
 G,A,B,G,[K:treble] CD=EC | FGAF B/c/A/B/ G/A/F/G/ | %49
 =E/F/D/E/ ^C/D/=B,/C/[K:bass] A,/_B,/G,/A,/ F,/G,/=E,/G,/ | %50
 F,/G,/=E,/F,/ D,D ^C/D/=B,/C/ A,D/A,/ | _B,G,C,C A,/B,/G,/A,/ F,B,/F,/ | %52
 G,=E,A,,A, F,/G,/E,/F,/ D,F, | G,/B,/D,/G,/ B,,/D,/G,,/D,/ =E,/F,/D,/E,/ C,E, | %54
 F,G, A,/B,/A,/B,/ C/D/B,/C/ A,[K:treble]A- | A2 G4 F2- | F2 =E2 z CFE | %57
 F2 x B, C/G/G,/G/ G,/G/G,/G/ | G,Gc=B c2 z F | G/d/D/d/ D/d/D/d/ DCB,C | %60
 D/d/c/e/ d/e/c/d/ B/c/A/c/ B/c/A/B/ | G/A/F/A/ G/A/F/G/ E/F/D/F/ E/F/D/E/ | %62
[K:bass] C/D/B,/C/ A,/C/^F,/A,/ G,/B,/D,/G,/ B,,/D,/G,,/C,/ | %63
 D,/A,,/=E,/A,,/ ^F,/G,/E,/F,/ G,/D,/A,/D,/ B,/D,/C | z2 z D B,/C/A,/B,/ G,G | %65
 ^F/G/=E/F/ DG/D/ _ECF,=F | D/E/C/D/ B,D/B,/ CA,D,D | %67
 B,/C/A,/B,/ G,/B,/A,/C/ B,/C/A,/B,/ G,/B,/A,/C/ | %68
 B,/C/A,/B,/ G,/B,/A,/C/[K:treble] B,/D/C/E/ D/F/E/D/ | C/D/=B,/D/ C/E/D/F/ E/F/D/E/ C/E/D/F/ | %70
 E/F/D/E/ C/E/D/F/ E/D/E/G/ _A/G/F/E/ | D/C/D/E/ F/D/G- G2- G/G/F/E/ | D/E/C/D/ E4 D2- | %73
 D2 C4 =B,2 | C2 z/ G/F/E/ D2- D/_A/G/F/ | E/F/D/E/ C/E/D/C/ =B,/C/A,/B,/ G,/B,/A,/B,/ | %76
 C/G,/D/G,/ E/G,/F/C/ G/D/A/D/ =B/G/A/B/ | c2- c/F/G/_A/ B2- B/E/F/G/ | _A4- A/c/B/A/ G/A/F/G/ | %79
 E/F/D/E/ CF[K:bass] B,/C/_A,/B,/ G,2- | G,2 F,4 E,2- | E,2 D,2 E,F,G,B, | B, z z2 z DB,B, | %83
 B,EDF F z z2 | z F,B,A, B,A,DF | B,2 z[K:treble] C FG_AF | B/c/_A/B/ G/A/F/G/ EFGE | %87
 _A/B/G/A/ F/G/E/F/ _DEFD | G=DE=B, CG,CB, | C2 z G GFEG, | C2 z D D z z d | ddg^f gfdd | %92
 d2 z e dA z2 |[K:bass] G,/=F,/_E,/D,/ C,/B,,/A,,/G,,/ D,D,, z/ G,/A,/B,/ | %94
 C,/E,/G,/B,/ A,/C/F,/A,/ B,,/D,/F,/A,/ G,/B,/E,/G,/ | A,,/C,/E,/G,/ ^F,/A,/D,/F,/ G,,A,,B,,G,, | %96
 D,=E,^F,D, G,A,B,G, | CDEC F,G,A,F, | B,CDB, E/F/D/E/ C/D/B,/C/ | %99
 A,/B,/G,/A,/ ^F,/G,/=E,/F,/ D,/_E,/C,/D,/ B,,/C,/A,,/C,/ | %100
 B,,/C,/A,,/B,,/ G,,G, ^F,/G,/=E,/F,/ D,G,/D,/ | _E,C,F,,F, D,/E,/C,/D,/ B,,E,/B,,/ | %102
 z2 z D B,/C/A,/B,/ x2 | D,2 B,4 A,2- | A,2 G,4 ^F,2 | %105
 x2 G,/B,/A,/G,/ ^F,/G,/F,/=E,/ D,/ x/ x/ x/ | B,/C/A,/B,/ G,/A,/F,/G,/ E,/F,/D,/E,/ C,/C/B,/C/ | %107
 A,/B,/G,/A,/ F,/G,/E,/F,/ D,/E,/C,/D,/ B,,/B,/A,/B,/ | G,/A,/^F,/G,/ =E,A, D,2 E,F, | %109
 G,C, A,>G, G, z z G | D2 z D C4 | B,4 A,4 | B,CDC G,A,DC | G,A,DC G,CDA, | G,3 |] %115
V:3
 x8 | x8 | x8 | z2 z G F/G/=E/F/ Dd | ^c/d/=B/c/ Ad/A/ _BG=C=c | A/B/G/A/ FB/F/ G=EA,A | %6
 F/G/=E/F/ D/E/F/G/ AG^FD | GF_ED CED=E | ^FGAB c>B A>A | GA B/c/B/c/ dA B2- | B2 A4 G2- | %11
 G2 ^F2 G2 z d | A2 z f c2 B2 | A3 A GA B2 | A^cdf =ed ^cd | G/A/B- B/B/A/G/ F/G/A- AG/F/ | %16
 =E/F/G- G/G/F/E/ A2 x2 | x8 | x8 | x8 | B/d/G/B/ A/c/^F/A/ GBCA | B,C D/d/c/e/ A^F G2- | %22
 G2 z A B2 z2 | z4 z2 z G | F/G/=E/F/ Dd ^c/d/=B/c/ Ad/A/ | _BGCc A/B/G/A/ FB/F/ | %26
 G=EA,A F/G/E/F/ D/E/F/G/ | _E/F/D/E/ C/D/E/F/ D/E/C/D/ B,/C/D/E/ | %28
 C/D/B,/C/ A,D- D/E/C/D/ B,/E/D/E/ | x8 | x8 | x8 | x8 | x8 | x8 | F4- F/E/D/E/ C>D | DE F4 z F | %37
 E/F/G- G/G/F/E/ D/E/F- F/F/E/D/ | C/D/E- E/E/D/C/ B,2 z2 | z CFF E=EF^F | GDGG F^FG^G | %41
 A/_B/=G/A/ =F/G/A/B/ G/A/F/G/ =E/F/G/A/ | F/A/D/F/ =E/G/^C/E/ D/F/A,/D/ E/G/A,/C/ | %43
 D/F/[I:staff +1]A,/D/[I:staff -1] x2 x4 | x8 | x8 | x8 | x8 | x8 | x8 | x8 | x8 | x8 | x8 | x8 | %55
 x8 | x8 | x8 | x8 | x8 | x8 | x8 | x8 | x8 | D>=E ^F2 G>A B>^C | D2 z d g/=f/_e/d/ c/e/d/c/ | %66
 B2 z B e/d/c/B/ A/c/B/A/ | G2 z2 z DG^F | G^F B/G/A/D/ GGG=B | G2 z2 z Gc=B | %70
 c=B e/c/d/G/ c/B/c/e/ d/e/d/c/ | =B/A/B/c/ d/c/d/B/ cBcg | g z z2 z4 | x8 | x8 | x8 | z8 | x8 | %78
 z4 z2 z B | G/_A/F/G/ Ee d/e/c/d/ Be/B/ | c_A[I:staff +1]D[I:staff -1]d B/c/A/B/ Gc/G/ | %81
 _AF[I:staff +1]B,[I:staff -1]A G/A/F/G/ E/G/F/A/ | G/_A/F/G/ E/G/F/A/ G/A/F/B/ G/B/F/A/ | %83
 x4 d/e/c/d/ B/d/c/e/ | d/e/c/d/ B/d/c/e/ x4 | z4 _a/b/g/a/ f/g/_e/f/ | _d4 g/_a/f/g/ e/f/d/e/ | %87
 c4 f/g/e/f/ _d/e/c/d/ | =B2 cd G2 z G | GGc=B cBGG | G2 z2 z4 | x8 | x8 | x8 | x8 | x8 | x8 | x8 | %98
 x8 | x8 | x8 | x8 | x6[I:staff +1] G,[I:staff -1]G | %103
 ^F/G/=E/F/ DG/D/ _EC[I:staff +1]=F,[I:staff -1]=F | %104
 D/E/C/D/ B,E/B,/ C[I:staff +1]A, D,[I:staff -1]D/C/ | %105
 B,/C/B,/[I:staff +1]A,/[I:staff -1] x4 x ^F | G4- G/A/F/G/ E/F/G/A/ | F4- F/G/E/F/ D/=E/^F/G/ | %108
 ^C4 D=CB,D- | D/C/B,/C/ x5 B | A2 z B B2- B/B/A/G/ | A2- A/A/G/^F/ G2- G/G/F/=E/ | D^FG_E DFGE | %113
 D^FGE D[I:staff +1]EB,D | D3 |] %115
V:4
 x8 | x8 | x8 | x8 | x8 | x8 | x8 | x8 | x8 | x8 | x8 | x8 | x8 | x8 | x8 | x8 | x8 | x8 | x8 | %19
 x8 | x8 | x8 | x8 | x8 | x8 | x8 | x8 | x8 | x8 | x8 | x8 | x8 | x8 | x8 | x8 | x8 | x8 | x8 | %38
 x8 | x8 | x8 | x8 | x8 | x8 | x8 | x8 | x8 | x8 | x8 | x8 | x8 | x8 | x8 | x8 | x8 | x8 | x8 | %57
 x8 | x8 | x8 | x8 | x8 | x8 | x8 | x8 | A2 x6 | x8 | x8 | x8 | x8 | x8 | x8 | x8 | x8 | x8 | x8 | %76
 x8 | x8 | x8 | x8 | x8 | x8 | x8 | x8 | x8 | x8 | x8 | x8 | x8 | x8 | x8 | x8 | x8 | x8 | x8 | %95
 x8 | x8 | x8 | x8 | x8 | x8 | x8 | x8 | x8 | x8 | x8 | x8 | x8 | x8 | x8 | x8 | x8 | x8 | %113
 x7 [cd] | [=Bd]3 |] %115
V:5
 x8 | x8 | x8 | x8 | x8 | x8 | x8 | x8 | x8 | x8 | x8 | x8 | x8 | x8 | x2[K:treble] x6 | x8 | %16
 x6[K:bass] x2 | x8 | x13/2[K:treble] x3/2 | x8 | x2[K:bass] x6 | x8 | x8 | x8 | x8 | x8 | x8 | %27
 x8 | x8 | x8 | x8 | x8 | x8 | x8 | x8 | x8 | x8 | x8 | x8 | x8 | x8 | x8 | x8 | x8 | x8 | x8 | %46
 x8 | x4[K:treble] x4 | x8 | x4[K:bass] x4 | x8 | x8 | x8 | x8 | x7[K:treble] x | x8 | x8 | x8 | %58
 x8 | x8 | x8 | x8 |[K:bass] x8 | x8 | x8 | x8 | x8 | x8 | x4[K:treble] x4 | x8 | x8 | x8 | x8 | %73
 x8 | x8 | x8 | x8 | x8 | x8 | x4[K:bass] x4 | x8 | x8 | x8 | x8 | x8 | x3[K:treble] x5 | x8 | x8 | %88
 x8 | x8 | x3 A, G,DG^F | G2 z d dcBD | G2 z2 z/ G/^F/=E/ D/C/B,/A,/ |[K:bass] x8 | x8 | x8 | x8 | %97
 x8 | x8 | x8 | x8 | x8 | C,A,,D,,D, G,=F, _E,2 | x8 | x8 | G,2 z2 z2 z/ D/C/D/ | x8 | x8 | x8 | %109
 x2 D,2 D, x x2 | x8 | x8 | x8 | x8 | x3 |] %115
V:6
 x8 | x8 | x8 | x8 | x8 | x8 | x8 | x8 | x8 | x8 | x8 | x8 | x8 | x8 | x8 | x8 | x8 | x8 | x8 | %19
 x8 | x8 | x8 | x8 | x8 | x8 | x8 | x8 | x8 | x8 | x8 | x8 | x8 | x8 | x8 | x8 | x8 | x8 | x8 | %38
 x8 | x8 | x8 | x8 | x8 | x8 | x8 | x8 | x8 | x8 | x8 | x8 | x8 | x8 | x8 | x8 | x8 | x8 | x8 | %57
 x8 | x8 | x8 | x8 | x8 | x8 | x8 | x8 | x8 | x8 | x8 | x8 | x8 | x8 | x8 | x8 | x8 | x8 | x8 | %76
 x8 | x8 | x8 | x8 | x8 | x8 | x8 | x8 | x8 | x8 | x8 | x8 | x8 | x8 | x8 | x8 | x8 | x8 | x8 | %95
 x8 | x8 | x8 | x8 | x8 | x8 | x8 | x8 | x8 | x8 | x8 | x8 | x8 | x8 | x8 | x8 | x8 | x8 | x5 cBA | %114
 G3 |] %115
V:7
 z8 | z8 | z8 | z8 | z8 | z8 | z8 | z8 | z8 | z8 | z8 | z8 | z8 | z4 z2 z G, | %14
 F,/G,/=E,/F,/ D,D ^C/D/=B,/C/ A,D/A,/ | B,G,C,C A,/B,/G,/A,/ F,B,/F,/ | %16
 G,=E,A,,A, F,/G,/E,/F,/ D,F, | G,2 z/ G,/F,/G,/ E,/F,/D,/E,/ C,E, | %18
 F,2 z/ F,/E,/F,/ D,/E,/C,/D,/ B,,D, | E,D,C,B,, A,,G,,^F,,D,, | G,,B,,C,D, G,,2 z D, | %21
 G,,A,,B,,C, D,A,, B,,2- | B,,2 A,,4 G,,2- | G,,2 ^F,,2 G,,=F,,=E,,=E, | D,C, B,,2 A,,2 z2 | z8 | %26
 z8 | z8 | z2 z D, B,,/C,/A,,/B,,/ G,,G, | ^F,/G,/=E,/F,/ D,G,/D,/ _E,C,F,,=F, | %30
 D,/E,/C,/D,/ B,,E,/B,,/ C,A,,D,,D, | B,,/C,/A,,/B,,/ G,,G, F,/G,/E,/F,/ D,B, | %32
 A,/B,/G,/A,/ F,/G,/E,/F,/ D,/E,/C,/D,/ B,,/B,/A,/B,/ | %33
 G,/A,/F,/G,/ E,/F,/D,/E,/ C,/D,/B,,/C,/ A,,/A,/G,/A,/ | %34
 F,/G,/E,/F,/ D,/E,/C,/D,/ B,,/C,/A,,/B,,/ G,,/C,/B,,/C,/ | F,,F,G,A, B,E,!fermata!F,!fermata!F,, | %36
 B,,2 z2 z4 | z8 | z8 | z8 | z8 | z8 | z8 | z8 | z8 | z8 | z8 | z8 | z8 | z8 | z8 | z8 | z8 | %53
 z4 z2 z C, | A,,/B,,/G,,/A,,/ F,,F, =E,/F,/D,/E,/ C,F,/C,/ | %55
 D,B,,=E,,=E, C,/D,/B,,/C,/ A,,D,/A,,/ | B,,G,,C,,C, A,,/B,,/G,,/A,,/ F,,/A,,/G,,/B,,/ | %57
 A,,/B,,/G,,/A,,/ F,,/A,,/G,,/B,,/ A,,/C,/=B,,/D,/ C,/E,/D,/F,/ | %58
 E,/F,/D,/E,/ C,/E,/D,/F,/ E,/F,/D,/E,/ C,/E,/D,/F,/ | %59
 =E,/G,/^F,/A,/ G,/B,/A,/C/ B,/C/A,/B,/ G,/B,/A,/C/ | %60
 B,/C/A,/C/ B,/C/A,/B,/ G,/A,/^F,/A,/ G,/A,/=F,/G,/ | %61
 E,/F,/D,/F,/ E,/F,/D,/E,/ C,/D,/B,,/D,/ C,/D,/B,,/C,/ | A,,/B,,/G,,/A,,/ ^F,,D,, G,,=F,, E,,2 | %63
 D,,8- | D,,8- | !fermata!D,,^F,,G,,B,, C,E,F,A,, | B,,D,E,G,, A,,C,D,D,, | G,,2 z D, G,2 z D, | %68
 G,,D,G,^F, G,E,=B,,G,, | C,2 z G, C,2 z G,, | C,G,C=B, C_A,F,D, | G,D,=B,,G,, C,G,,E,,C,, | %72
 G,,G,C,E, F,/C,/_A,- A,/B,,/D,/B,,/ | E,/B,,/G,- G,/_A,,/C,/A,,/ D,/A,,/F,- F,/G,,/=B,,/G,,/ | %74
 C,/G,,/D,/G,,/ E,/G,,/F,/G,,/ G,/G,,/A,/G,,/ =B,/G,,/G,/G,,/ | C2 z2 z2 z/ G,/F,/G,/ | %76
 E,/F,/D,/E,/ C,/D,/C,/D,/ =B,,/C,/A,,/B,,/ G,,G, | E,C,F,E, D,B,,E,D, | C,B,,C,_A,, B,,2 z B,, | %79
 E,,2 z2 z4 | z8 | z4 z B,,E,D, | E, z z2 z B,,E,D, | E,F,G,=A, B, z z2 | z4 z F,,B,,A,, | %85
 B,,C,D,=E, F,2 z2 | B,,C,_D,B,, E,2 z2 | _A,,B,,C,A,, _D,2 z2 | %88
 G,/_A,/F,/G,/ E,/F,/D,/E,/ C,2 z G,, | C,2 z G,, C,,G,,C,=B,, | C,D,=E,^F, G, z z D, | %91
 G,2 z D, G,,D,G,^F, | G,A,B,C DD, z2 | z8 | z8 | z8 | z8 | z8 | z8 | z8 | z8 | z8 | z8 | z8 | z8 | %105
 z8 | z8 | z8 | z8 | z2 z D, B,,/C,/A,,/B,,/ G,,G, | ^F,/G,/=E,/F,/ D,G,/D,/ _E,C,F,,=F, | %111
 D,/E,/C,/D,/ B,,E,/B,,/ C,A,,D,,D, | %112
 B,,/C,/A,,/B,,/ G,,/B,,/A,,/C,/ B,,/C,/A,,/B,,/ G,,/B,,/A,,/C,/ | %113
 B,,/C,/A,,/B,,/ G,,/B,,/A,,/C,/ B,,/D,/C,/E,/ D,D,, | G,,3 |] %115

